svgs/sharp-solid/champagne-glass.svg

<svg xmlns="http://www.w3.org/2000/svg" viewBox="0 0 320 512"><!--! Font Awesome Pro 6.6.0 by @fontawesome - https://fontawesome.com License - https://fontawesome.com/license (Commercial License) Copyright 2024 Fonticons, Inc. --><path d="M111.1 128l97.7 0-8.7-64-80.3 0-8.7 64zm173.4 81.3c8.8 64.5-32.8 122.9-92.5 138.6L192 448l48 0 32 0 0 64-32 0-80 0-80 0-32 0 0-64 32 0 48 0 0-100.1C68.2 332.3 26.7 273.8 35.5 209.3L64 0 256 0l28.5 209.3z"/></svg>

<svg xmlns="http://www.w3.org/2000/svg" viewBox="0 0 320 512"><!--! Font Awesome Pro 6.4.0 by @fontawesome - https://fontawesome.com License - https://fontawesome.com/license (Commercial License) Copyright 2023 Fonticons, Inc. --><path d="M111.1 128h97.7l-8.7-64H119.9l-8.7 64zm173.4 81.3c8.8 64.5-32.8 122.9-92.5 138.6V448h48 32v64H240 160 80 48V448H80h48V347.9C68.2 332.3 26.7 273.8 35.5 209.3L64 0H256l28.5 209.3z"/></svg>
